content/blogs/regnskap/ansattutlegg/ansattutlegg-rapportering.svg

<svg xmlns="http://www.w3.org/2000/svg" width="800" height="600" viewBox="0 0 800 600"><defs><linearGradient id="a" x1="0%" x2="100%" y1="0%" y2="100%"><stop offset="0%" style="stop-color:#3b82f6;stop-opacity:1"/><stop offset="100%" style="stop-color:#1e40af;stop-opacity:1"/></linearGradient><linearGradient id="b" x1="0%" x2="100%" y1="0%" y2="100%"><stop offset="0%" style="stop-color:#10b981;stop-opacity:1"/><stop offset="100%" style="stop-color:#047857;stop-opacity:1"/></linearGradient><linearGradient id="c" x1="0%" x2="100%" y1="0%" y2="100%"><stop offset="0%" style="stop-color:#f59e0b;stop-opacity:1"/><stop offset="100%" style="stop-color:#d97706;stop-opacity:1"/></linearGradient><linearGradient id="d" x1="0%" x2="100%" y1="0%" y2="100%"><stop offset="0%" style="stop-color:#ef4444;stop-opacity:1"/><stop offset="100%" style="stop-color:#dc2626;stop-opacity:1"/></linearGradient><linearGradient id="e" x1="0%" x2="100%" y1="0%" y2="100%"><stop offset="0%" style="stop-color:#8b5cf6;stop-opacity:1"/><stop offset="100%" style="stop-color:#7c3aed;stop-opacity:1"/></linearGradient></defs><path fill="#f8fafc" d="M0 0h800v600H0z"/><text x="400" y="30" fill="#1e293b" font-family="Arial, sans-serif" font-size="20" font-weight="bold" text-anchor="middle">
    Rapportering og Analyse av Ansattutlegg
  </text><rect width="300" height="180" x="50" y="60" fill="url(#a)" stroke="#1e40af" stroke-width="2" rx="10"/><text x="200" y="85" fill="#fff" font-family="Arial, sans-serif" font-size="14" font-weight="bold" text-anchor="middle">
    Dashboard og Oversikt
  </text><rect width="80" height="50" x="70" y="100" fill="rgba(255,255,255,0.2)" stroke="rgba(255,255,255,0.5)" rx="5"/><text x="110" y="115" fill="#fff" font-family="Arial, sans-serif" font-size="9" text-anchor="middle">
    Månedlig volum
  </text><path fill="none" stroke="#fff" stroke-width="2" d="m75 140 10-10 10 5 10-10 10 5 10-10 10 5 10-10"/><rect width="80" height="50" x="160" y="100" fill="rgba(255,255,255,0.2)" stroke="rgba(255,255,255,0.5)" rx="5"/><text x="200" y="115" fill="#fff" font-family="Arial, sans-serif" font-size="9" text-anchor="middle">
    Kostnadsfordeling
  </text><circle cx="200" cy="130" r="15" fill="none" stroke="#fff" stroke-width="2"/><path fill="#fff" fill-opacity=".7" d="M200 115a15 15 0 0 1 15 15"/><rect width="80" height="50" x="250" y="100" fill="rgba(255,255,255,0.2)" stroke="rgba(255,255,255,0.5)" rx="5"/><text x="290" y="115" fill="#fff" font-family="Arial, sans-serif" font-size="9" text-anchor="middle">
    Behandlingstid
  </text><path fill="#fff" d="M260 135h10v10h-10zM275 130h10v15h-10zM290 125h10v20h-10zM305 120h10v25h-10z"/><text x="70" y="175" fill="#fff" font-family="Arial, sans-serif" font-size="11">
    • Real-time oppdatering
  </text><text x="70" y="190" fill="#fff" font-family="Arial, sans-serif" font-size="11">
    • Visuell fremstilling
  </text><text x="70" y="205" fill="#fff" font-family="Arial, sans-serif" font-size="11">
    • Drill-down funksjonalitet
  </text><text x="70" y="220" fill="#fff" font-family="Arial, sans-serif" font-size="11">
    • Tilpassbare visninger
  </text><rect width="300" height="180" x="370" y="60" fill="url(#b)" stroke="#047857" stroke-width="2" rx="10"/><text x="520" y="85" fill="#fff" font-family="Arial, sans-serif" font-size="14" font-weight="bold" text-anchor="middle">
    Trendanalyse
  </text><rect width="260" height="100" x="390" y="100" fill="rgba(255,255,255,0.2)" stroke="rgba(255,255,255,0.5)" rx="5"/><text x="520" y="115" fill="#fff" font-family="Arial, sans-serif" font-size="10" text-anchor="middle">
    Utviklingstrender siste 12 måneder
  </text><path stroke="#fff" d="M400 190v-60M400 190h240"/><path fill="none" stroke="#fff" stroke-width="2" d="m400 180 20-5 20-5 20-5 20-5 20-10 20-5 20-5 20-5 20 5 20-5 20-5 20-5"/><path fill="none" stroke="#ff0" stroke-width="2" d="m400 185 20-5 20-5 20-5 20 5 20-5 20-5 20-5 20-5 20-5 20-5 20-5 20-5"/><text x="390" y="220" fill="#fff" font-family="Arial, sans-serif" font-size="11">
    • Sesongvariasjoner
  </text><text x="520" y="220" fill="#fff" font-family="Arial, sans-serif" font-size="11">
    • Avviksdeteksjon
  </text><rect width="300" height="140" x="50" y="260" fill="url(#c)" stroke="#d97706" stroke-width="2" rx="10"/><text x="200" y="285" fill="#fff" font-family="Arial, sans-serif" font-size="14" font-weight="bold" text-anchor="middle">
    Avanserte Analyser
  </text><text x="70" y="305" fill="#fff" font-family="Arial, sans-serif" font-size="11">
    Kostnadskategorier:
  </text><text x="70" y="320" fill="#fff" font-family="Arial, sans-serif" font-size="10">
    • Reiseutlegg: 45%
  </text><text x="70" y="335" fill="#fff" font-family="Arial, sans-serif" font-size="10">
    • Representasjon: 30%
  </text><text x="70" y="350" fill="#fff" font-family="Arial, sans-serif" font-size="10">
    • Kontorutstyr: 25%
  </text><text x="200" y="305" fill="#fff" font-family="Arial, sans-serif" font-size="11">
    Avdelingsfordeling:
  </text><text x="200" y="320" fill="#fff" font-family="Arial, sans-serif" font-size="10">
    • Salg: 40%
  </text><text x="200" y="335" fill="#fff" font-family="Arial, sans-serif" font-size="10">
    • Marked: 35%
  </text><text x="200" y="350" fill="#fff" font-family="Arial, sans-serif" font-size="10">
    • Administrasjon: 25%
  </text><text x="70" y="375" fill="#fff" font-family="Arial, sans-serif" font-size="11">
    • Leverandøranalyse
  </text><text x="200" y="375" fill="#fff" font-family="Arial, sans-serif" font-size="11">
    • Prediktive modeller
  </text><text x="70" y="390" fill="#fff" font-family="Arial, sans-serif" font-size="11">
    • Benchmark-sammenligning
  </text><text x="200" y="390" fill="#fff" font-family="Arial, sans-serif" font-size="11">
    • Kostnadsoptimalisering
  </text><rect width="300" height="140" x="370" y="260" fill="url(#d)" stroke="#dc2626" stroke-width="2" rx="10"/><text x="520" y="285" fill="#fff" font-family="Arial, sans-serif" font-size="14" font-weight="bold" text-anchor="middle">
    Nøkkeltall (KPI-er)
  </text><rect width="80" height="40" x="390" y="300" fill="rgba(255,255,255,0.2)" stroke="rgba(255,255,255,0.5)" rx="5"/><text x="430" y="315" fill="#fff" font-family="Arial, sans-serif" font-size="12" font-weight="bold" text-anchor="middle">
    125,000
  </text><text x="430" y="330" fill="#fff" font-family="Arial, sans-serif" font-size="9" text-anchor="middle">
    kr/ansatt/år
  </text><rect width="80" height="40" x="480" y="300" fill="rgba(255,255,255,0.2)" stroke="rgba(255,255,255,0.5)" rx="5"/><text x="520" y="315" fill="#fff" font-family="Arial, sans-serif" font-size="12" font-weight="bold" text-anchor="middle">
    18 timer
  </text><text x="520" y="330" fill="#fff" font-family="Arial, sans-serif" font-size="9" text-anchor="middle">
    behandlingstid
  </text><rect width="80" height="40" x="570" y="300" fill="rgba(255,255,255,0.2)" stroke="rgba(255,255,255,0.5)" rx="5"/><text x="610" y="315" fill="#fff" font-family="Arial, sans-serif" font-size="12" font-weight="bold" text-anchor="middle">
    97%
  </text><text x="610" y="330" fill="#fff" font-family="Arial, sans-serif" font-size="9" text-anchor="middle">
    godkjenning
  </text><rect width="80" height="40" x="390" y="350" fill="rgba(255,255,255,0.2)" stroke="rgba(255,255,255,0.5)" rx="5"/><text x="430" y="365" fill="#fff" font-family="Arial, sans-serif" font-size="12" font-weight="bold" text-anchor="middle">
    1.2%
  </text><text x="430" y="380" fill="#fff" font-family="Arial, sans-serif" font-size="9" text-anchor="middle">
    feilrate
  </text><rect width="80" height="40" x="480" y="350" fill="rgba(255,255,255,0.2)" stroke="rgba(255,255,255,0.5)" rx="5"/><text x="520" y="365" fill="#fff" font-family="Arial, sans-serif" font-size="12" font-weight="bold" text-anchor="middle">
    85%
  </text><text x="520" y="380" fill="#fff" font-family="Arial, sans-serif" font-size="9" text-anchor="middle">
    digitalisering
  </text><rect width="80" height="40" x="570" y="350" fill="rgba(255,255,255,0.2)" stroke="rgba(255,255,255,0.5)" rx="5"/><text x="610" y="365" fill="#fff" font-family="Arial, sans-serif" font-size="12" font-weight="bold" text-anchor="middle">
    4.2
  </text><text x="610" y="380" fill="#fff" font-family="Arial, sans-serif" font-size="9" text-anchor="middle">
    tilfredshet
  </text><rect width="700" height="30" x="50" y="420" fill="url(#e)" stroke="#7c3aed" stroke-width="2" rx="5"/><text x="400" y="440" fill="#fff" font-family="Arial, sans-serif" font-size="14" font-weight="bold" text-anchor="middle">
    Avansert Rapportering og Eksport
  </text><rect width="140" height="80" x="70" y="470" fill="#e0f2fe" stroke="#0369a1" stroke-width="2" rx="8"/><text x="140" y="490" fill="#0369a1" font-family="Arial, sans-serif" font-size="12" font-weight="bold" text-anchor="middle">
      Planlagte Rapporter
    </text><text x="80" y="510" fill="#0369a1" font-family="Arial, sans-serif" font-size="10">
      • Månedlige sammendrag
    </text><text x="80" y="525" fill="#0369a1" font-family="Arial, sans-serif" font-size="10">
      • Kvartalsvise analyser
    </text><text x="80" y="540" fill="#0369a1" font-family="Arial, sans-serif" font-size="10">
      • Årsrapporter
    </text><rect width="140" height="80" x="240" y="470" fill="#d1fae5" stroke="#10b981" stroke-width="2" rx="8"/><text x="310" y="490" fill="#047857" font-family="Arial, sans-serif" font-size="12" font-weight="bold" text-anchor="middle">
      Sanntidsrapporter
    </text><text x="250" y="510" fill="#047857" font-family="Arial, sans-serif" font-size="10">
      • Live dashboards
    </text><text x="250" y="525" fill="#047857" font-family="Arial, sans-serif" font-size="10">
      • Øyeblikkelige alerts
    </text><text x="250" y="540" fill="#047857" font-family="Arial, sans-serif" font-size="10">
      • Kontinuerlig overvåking
    </text><rect width="140" height="80" x="410" y="470" fill="#fef3c7" stroke="#f59e0b" stroke-width="2" rx="8"/><text x="480" y="490" fill="#92400e" font-family="Arial, sans-serif" font-size="12" font-weight="bold" text-anchor="middle">
      Tilpassede Rapporter
    </text><text x="420" y="510" fill="#92400e" font-family="Arial, sans-serif" font-size="10">
      • Egendefinerte filtre
    </text><text x="420" y="525" fill="#92400e" font-family="Arial, sans-serif" font-size="10">
      • Fleksible formater
    </text><text x="420" y="540" fill="#92400e" font-family="Arial, sans-serif" font-size="10">
      • Parametriserte view
    </text><rect width="140" height="80" x="580" y="470" fill="#f3e8ff" stroke="#8b5cf6" stroke-width="2" rx="8"/><text x="650" y="490" fill="#6d28d9" font-family="Arial, sans-serif" font-size="12" font-weight="bold" text-anchor="middle">
      Eksportmuligheter
    </text><text x="590" y="510" fill="#6d28d9" font-family="Arial, sans-serif" font-size="10">
      • Excel/CSV format
    </text><text x="590" y="525" fill="#6d28d9" font-family="Arial, sans-serif" font-size="10">
      • PDF-rapporter
    </text><text x="590" y="540" fill="#6d28d9" font-family="Arial, sans-serif" font-size="10">
      • API-integrasjon
    </text><rect width="700" height="20" x="50" y="570" fill="#f1f5f9" stroke="#cbd5e1" rx="5"/><text x="60" y="585" fill="#64748b" font-family="Arial, sans-serif" font-size="10">
    Rapportering støtter compliance-krav, budsjettoppfølging og strategisk beslutningsstøtte for ledelsen.
  </text></svg>

<svg width="800" height="600" viewBox="0 0 800 600" xmlns="http://www.w3.org/2000/svg">
  <defs>
    <linearGradient id="dashboardGradient" x1="0%" y1="0%" x2="100%" y2="100%">
      <stop offset="0%" style="stop-color:#3B82F6;stop-opacity:1" />
      <stop offset="100%" style="stop-color:#1E40AF;stop-opacity:1" />
    </linearGradient>
    <linearGradient id="trendGradient" x1="0%" y1="0%" x2="100%" y2="100%">
      <stop offset="0%" style="stop-color:#10B981;stop-opacity:1" />
      <stop offset="100%" style="stop-color:#047857;stop-opacity:1" />
    </linearGradient>
    <linearGradient id="analyticsGradient" x1="0%" y1="0%" x2="100%" y2="100%">
      <stop offset="0%" style="stop-color:#F59E0B;stop-opacity:1" />
      <stop offset="100%" style="stop-color:#D97706;stop-opacity:1" />
    </linearGradient>
    <linearGradient id="kpiGradient" x1="0%" y1="0%" x2="100%" y2="100%">
      <stop offset="0%" style="stop-color:#EF4444;stop-opacity:1" />
      <stop offset="100%" style="stop-color:#DC2626;stop-opacity:1" />
    </linearGradient>
    <linearGradient id="chartGradient" x1="0%" y1="0%" x2="100%" y2="100%">
      <stop offset="0%" style="stop-color:#8B5CF6;stop-opacity:1" />
      <stop offset="100%" style="stop-color:#7C3AED;stop-opacity:1" />
    </linearGradient>
  </defs>
  

  <rect width="800" height="600" fill="#F8FAFC"/>
  

  <text x="400" y="30" text-anchor="middle" font-family="Arial, sans-serif" font-size="20" font-weight="bold" fill="#1E293B">
    Rapportering og Analyse av Ansattutlegg
  </text>
  

  <rect x="50" y="60" width="300" height="180" rx="10" fill="url(#dashboardGradient)" stroke="#1E40AF" stroke-width="2"/>
  <text x="200" y="85" text-anchor="middle" font-family="Arial, sans-serif" font-size="14" font-weight="bold" fill="white">
    Dashboard og Oversikt
  </text>
  

  <rect x="70" y="100" width="80" height="50" rx="5" fill="rgba(255,255,255,0.2)" stroke="rgba(255,255,255,0.5)" stroke-width="1"/>
  <text x="110" y="115" text-anchor="middle" font-family="Arial, sans-serif" font-size="9" fill="white">
    Månedlig volum
  </text>
  <path d="M 75 140 L 85 130 L 95 135 L 105 125 L 115 130 L 125 120 L 135 125 L 145 115" stroke="white" stroke-width="2" fill="none"/>
  
  <rect x="160" y="100" width="80" height="50" rx="5" fill="rgba(255,255,255,0.2)" stroke="rgba(255,255,255,0.5)" stroke-width="1"/>
  <text x="200" y="115" text-anchor="middle" font-family="Arial, sans-serif" font-size="9" fill="white">
    Kostnadsfordeling
  </text>
  <circle cx="200" cy="130" r="15" fill="none" stroke="white" stroke-width="2"/>
  <path d="M 200 115 A 15 15 0 0 1 215 130" fill="white" fill-opacity="0.7"/>
  
  <rect x="250" y="100" width="80" height="50" rx="5" fill="rgba(255,255,255,0.2)" stroke="rgba(255,255,255,0.5)" stroke-width="1"/>
  <text x="290" y="115" text-anchor="middle" font-family="Arial, sans-serif" font-size="9" fill="white">
    Behandlingstid
  </text>
  <rect x="260" y="135" width="10" height="10" fill="white"/>
  <rect x="275" y="130" width="10" height="15" fill="white"/>
  <rect x="290" y="125" width="10" height="20" fill="white"/>
  <rect x="305" y="120" width="10" height="25" fill="white"/>
  

  <text x="70" y="175" font-family="Arial, sans-serif" font-size="11" fill="white">
    • Real-time oppdatering
  </text>
  <text x="70" y="190" font-family="Arial, sans-serif" font-size="11" fill="white">
    • Visuell fremstilling
  </text>
  <text x="70" y="205" font-family="Arial, sans-serif" font-size="11" fill="white">
    • Drill-down funksjonalitet
  </text>
  <text x="70" y="220" font-family="Arial, sans-serif" font-size="11" fill="white">
    • Tilpassbare visninger
  </text>
  

  <rect x="370" y="60" width="300" height="180" rx="10" fill="url(#trendGradient)" stroke="#047857" stroke-width="2"/>
  <text x="520" y="85" text-anchor="middle" font-family="Arial, sans-serif" font-size="14" font-weight="bold" fill="white">
    Trendanalyse
  </text>
  

  <rect x="390" y="100" width="260" height="100" rx="5" fill="rgba(255,255,255,0.2)" stroke="rgba(255,255,255,0.5)" stroke-width="1"/>
  <text x="520" y="115" text-anchor="middle" font-family="Arial, sans-serif" font-size="10" fill="white">
    Utviklingstrender siste 12 måneder
  </text>
  

  <line x1="400" y1="190" x2="400" y2="130" stroke="white" stroke-width="1"/>
  <line x1="400" y1="190" x2="640" y2="190" stroke="white" stroke-width="1"/>
  

  <path d="M 400 180 L 420 175 L 440 170 L 460 165 L 480 160 L 500 150 L 520 145 L 540 140 L 560 135 L 580 140 L 600 135 L 620 130 L 640 125" stroke="white" stroke-width="2" fill="none"/>
  <path d="M 400 185 L 420 180 L 440 175 L 460 170 L 480 175 L 500 170 L 520 165 L 540 160 L 560 155 L 580 150 L 600 145 L 620 140 L 640 135" stroke="yellow" stroke-width="2" fill="none"/>
  
  <text x="390" y="220" font-family="Arial, sans-serif" font-size="11" fill="white">
    • Sesongvariasjoner
  </text>
  <text x="520" y="220" font-family="Arial, sans-serif" font-size="11" fill="white">
    • Avviksdeteksjon
  </text>
  

  <rect x="50" y="260" width="300" height="140" rx="10" fill="url(#analyticsGradient)" stroke="#D97706" stroke-width="2"/>
  <text x="200" y="285" text-anchor="middle" font-family="Arial, sans-serif" font-size="14" font-weight="bold" fill="white">
    Avanserte Analyser
  </text>
  

  <text x="70" y="305" font-family="Arial, sans-serif" font-size="11" fill="white">
    Kostnadskategorier:
  </text>
  <text x="70" y="320" font-family="Arial, sans-serif" font-size="10" fill="white">
    • Reiseutlegg: 45%
  </text>
  <text x="70" y="335" font-family="Arial, sans-serif" font-size="10" fill="white">
    • Representasjon: 30%
  </text>
  <text x="70" y="350" font-family="Arial, sans-serif" font-size="10" fill="white">
    • Kontorutstyr: 25%
  </text>
  
  <text x="200" y="305" font-family="Arial, sans-serif" font-size="11" fill="white">
    Avdelingsfordeling:
  </text>
  <text x="200" y="320" font-family="Arial, sans-serif" font-size="10" fill="white">
    • Salg: 40%
  </text>
  <text x="200" y="335" font-family="Arial, sans-serif" font-size="10" fill="white">
    • Marked: 35%
  </text>
  <text x="200" y="350" font-family="Arial, sans-serif" font-size="10" fill="white">
    • Administrasjon: 25%
  </text>
  
  <text x="70" y="375" font-family="Arial, sans-serif" font-size="11" fill="white">
    • Leverandøranalyse
  </text>
  <text x="200" y="375" font-family="Arial, sans-serif" font-size="11" fill="white">
    • Prediktive modeller
  </text>
  <text x="70" y="390" font-family="Arial, sans-serif" font-size="11" fill="white">
    • Benchmark-sammenligning
  </text>
  <text x="200" y="390" font-family="Arial, sans-serif" font-size="11" fill="white">
    • Kostnadsoptimalisering
  </text>
  

  <rect x="370" y="260" width="300" height="140" rx="10" fill="url(#kpiGradient)" stroke="#DC2626" stroke-width="2"/>
  <text x="520" y="285" text-anchor="middle" font-family="Arial, sans-serif" font-size="14" font-weight="bold" fill="white">
    Nøkkeltall (KPI-er)
  </text>
  

  <rect x="390" y="300" width="80" height="40" rx="5" fill="rgba(255,255,255,0.2)" stroke="rgba(255,255,255,0.5)" stroke-width="1"/>
  <text x="430" y="315" text-anchor="middle" font-family="Arial, sans-serif" font-size="12" font-weight="bold" fill="white">
    125,000
  </text>
  <text x="430" y="330" text-anchor="middle" font-family="Arial, sans-serif" font-size="9" fill="white">
    kr/ansatt/år
  </text>
  
  <rect x="480" y="300" width="80" height="40" rx="5" fill="rgba(255,255,255,0.2)" stroke="rgba(255,255,255,0.5)" stroke-width="1"/>
  <text x="520" y="315" text-anchor="middle" font-family="Arial, sans-serif" font-size="12" font-weight="bold" fill="white">
    18 timer
  </text>
  <text x="520" y="330" text-anchor="middle" font-family="Arial, sans-serif" font-size="9" fill="white">
    behandlingstid
  </text>
  
  <rect x="570" y="300" width="80" height="40" rx="5" fill="rgba(255,255,255,0.2)" stroke="rgba(255,255,255,0.5)" stroke-width="1"/>
  <text x="610" y="315" text-anchor="middle" font-family="Arial, sans-serif" font-size="12" font-weight="bold" fill="white">
    97%
  </text>
  <text x="610" y="330" text-anchor="middle" font-family="Arial, sans-serif" font-size="9" fill="white">
    godkjenning
  </text>
  
  <rect x="390" y="350" width="80" height="40" rx="5" fill="rgba(255,255,255,0.2)" stroke="rgba(255,255,255,0.5)" stroke-width="1"/>
  <text x="430" y="365" text-anchor="middle" font-family="Arial, sans-serif" font-size="12" font-weight="bold" fill="white">
    1.2%
  </text>
  <text x="430" y="380" text-anchor="middle" font-family="Arial, sans-serif" font-size="9" fill="white">
    feilrate
  </text>
  
  <rect x="480" y="350" width="80" height="40" rx="5" fill="rgba(255,255,255,0.2)" stroke="rgba(255,255,255,0.5)" stroke-width="1"/>
  <text x="520" y="365" text-anchor="middle" font-family="Arial, sans-serif" font-size="12" font-weight="bold" fill="white">
    85%
  </text>
  <text x="520" y="380" text-anchor="middle" font-family="Arial, sans-serif" font-size="9" fill="white">
    digitalisering
  </text>
  
  <rect x="570" y="350" width="80" height="40" rx="5" fill="rgba(255,255,255,0.2)" stroke="rgba(255,255,255,0.5)" stroke-width="1"/>
  <text x="610" y="365" text-anchor="middle" font-family="Arial, sans-serif" font-size="12" font-weight="bold" fill="white">
    4.2
  </text>
  <text x="610" y="380" text-anchor="middle" font-family="Arial, sans-serif" font-size="9" fill="white">
    tilfredshet
  </text>
  

  <rect x="50" y="420" width="700" height="30" rx="5" fill="url(#chartGradient)" stroke="#7C3AED" stroke-width="2"/>
  <text x="400" y="440" text-anchor="middle" font-family="Arial, sans-serif" font-size="14" font-weight="bold" fill="white">
    Avansert Rapportering og Eksport
  </text>
  

  <g id="reportingFeatures">

    <rect x="70" y="470" width="140" height="80" rx="8" fill="#E0F2FE" stroke="#0369A1" stroke-width="2"/>
    <text x="140" y="490" text-anchor="middle" font-family="Arial, sans-serif" font-size="12" font-weight="bold" fill="#0369A1">
      Planlagte Rapporter
    </text>
    <text x="80" y="510" font-family="Arial, sans-serif" font-size="10" fill="#0369A1">
      • Månedlige sammendrag
    </text>
    <text x="80" y="525" font-family="Arial, sans-serif" font-size="10" fill="#0369A1">
      • Kvartalsvise analyser
    </text>
    <text x="80" y="540" font-family="Arial, sans-serif" font-size="10" fill="#0369A1">
      • Årsrapporter
    </text>
    

    <rect x="240" y="470" width="140" height="80" rx="8" fill="#D1FAE5" stroke="#10B981" stroke-width="2"/>
    <text x="310" y="490" text-anchor="middle" font-family="Arial, sans-serif" font-size="12" font-weight="bold" fill="#047857">
      Sanntidsrapporter
    </text>
    <text x="250" y="510" font-family="Arial, sans-serif" font-size="10" fill="#047857">
      • Live dashboards
    </text>
    <text x="250" y="525" font-family="Arial, sans-serif" font-size="10" fill="#047857">
      • Øyeblikkelige alerts
    </text>
    <text x="250" y="540" font-family="Arial, sans-serif" font-size="10" fill="#047857">
      • Kontinuerlig overvåking
    </text>
    

    <rect x="410" y="470" width="140" height="80" rx="8" fill="#FEF3C7" stroke="#F59E0B" stroke-width="2"/>
    <text x="480" y="490" text-anchor="middle" font-family="Arial, sans-serif" font-size="12" font-weight="bold" fill="#92400E">
      Tilpassede Rapporter
    </text>
    <text x="420" y="510" font-family="Arial, sans-serif" font-size="10" fill="#92400E">
      • Egendefinerte filtre
    </text>
    <text x="420" y="525" font-family="Arial, sans-serif" font-size="10" fill="#92400E">
      • Fleksible formater
    </text>
    <text x="420" y="540" font-family="Arial, sans-serif" font-size="10" fill="#92400E">
      • Parametriserte view
    </text>
    

    <rect x="580" y="470" width="140" height="80" rx="8" fill="#F3E8FF" stroke="#8B5CF6" stroke-width="2"/>
    <text x="650" y="490" text-anchor="middle" font-family="Arial, sans-serif" font-size="12" font-weight="bold" fill="#6D28D9">
      Eksportmuligheter
    </text>
    <text x="590" y="510" font-family="Arial, sans-serif" font-size="10" fill="#6D28D9">
      • Excel/CSV format
    </text>
    <text x="590" y="525" font-family="Arial, sans-serif" font-size="10" fill="#6D28D9">
      • PDF-rapporter
    </text>
    <text x="590" y="540" font-family="Arial, sans-serif" font-size="10" fill="#6D28D9">
      • API-integrasjon
    </text>
  </g>
  

  <rect x="50" y="570" width="700" height="20" rx="5" fill="#F1F5F9" stroke="#CBD5E1" stroke-width="1"/>
  <text x="60" y="585" font-family="Arial, sans-serif" font-size="10" fill="#64748B">
    Rapportering støtter compliance-krav, budsjettoppfølging og strategisk beslutningsstøtte for ledelsen.
  </text>
</svg>
